assets/images/icons/set2/link.svg

<svg xmlns="http://www.w3.org/2000/svg" width="28" height="28" xmlns:xlink="http://www.w3.org/1999/xlink" id="set2-link">
  <use xlink:href="#a21" transform="translate(5.932 5.55)"/>
  <defs>
    <path id="a21" fill-rule="evenodd" d="M10.9816 1.57361L8.61356 3.94153l-.7071-.70703L10.2744.866455c1.1553-1.155273 2.9439-1.155273 4.0992 0l.768.767945c1.1552 1.15527 1.1552 2.94385 0 4.09912l-3.9041 3.90405c-1.1552 1.15523-2.9438 1.15523-4.09904 0l-.32001-.32007.70709-.70703.32001.31995c.76474.76477 1.92017.76477 2.68495 0l3.9039-3.90393c.7648-.76477.7648-1.92017 0-2.68494l-.768-.76794c-.7647-.764772-1.9201-.764772-2.6848 0zM5.02646 14.4984l2.36798-2.3679.70712.707-2.36801 2.3681c-1.15527 1.1552-2.94385 1.1552-4.09909 0l-.768005-.7681c-1.155273-1.1553-1.155273-2.9438 0-4.099L4.77045 6.43445c1.15527-1.15528 2.94384-1.15528 4.09912 0l.31997.31994-.70709.70716-.32-.31995c-.76474-.76477-1.92017-.76477-2.68491 0l-3.90399 3.9039c-.764743.7648-.764743 1.9202 0 2.685l.768.7679c.76474.7648 1.92017.7648 2.68491 0z"/>
  </defs>
</svg>

<svg width="28" height="28" viewBox="0 0 28 28" version="1.1" xmlns="http://www.w3.org/2000/svg" xmlns:xlink="http://www.w3.org/1999/xlink">
<title>@$&#9;</title>
<desc>Created using Figma</desc>
<g id="Canvas" transform="translate(-476 -1834)">
<g id="Icon/Misc/Carbon/Link">
<g id="Icon/Misc/Carbon/Link">
<g id="Combined Shape">
<use xlink:href="#path0_fill" transform="translate(481.932 1839.55)" fill="#202A37"/>
</g>
</g>
</g>
</g>
<defs>
<path id="path0_fill" fill-rule="evenodd" d="M 10.9816 1.57361L 8.61356 3.94153L 7.90646 3.2345L 10.2744 0.866455C 11.4297 -0.288818 13.2183 -0.288818 14.3736 0.866455L 15.1416 1.6344C 16.2968 2.78967 16.2968 4.57825 15.1416 5.73352L 11.2375 9.63757C 10.0823 10.7928 8.2937 10.7928 7.13846 9.63757L 6.81845 9.3175L 7.52554 8.61047L 7.84555 8.93042C 8.61029 9.69519 9.76572 9.69519 10.5305 8.93042L 14.4344 5.02649C 15.1992 4.26172 15.1992 3.10632 14.4344 2.34155L 13.6664 1.57361C 12.9017 0.808838 11.7463 0.808838 10.9816 1.57361ZM 5.02646 14.4984L 7.39444 12.1305L 8.10156 12.8375L 5.73355 15.2056C 4.57828 16.3608 2.7897 16.3608 1.63446 15.2056L 0.866455 14.4375C -0.288818 13.2822 -0.288818 11.4937 0.866455 10.3385L 4.77045 6.43445C 5.92572 5.27917 7.71429 5.27917 8.86957 6.43445L 9.18954 6.75439L 8.48245 7.46155L 8.16245 7.1416C 7.39771 6.37683 6.24228 6.37683 5.47754 7.1416L 1.57355 11.0455C 0.808807 11.8103 0.808807 12.9657 1.57355 13.7305L 2.34155 14.4984C 3.10629 15.2632 4.26172 15.2632 5.02646 14.4984Z"/>
</defs>
</svg>
